X:1
T:II. Là-bas, vers l'église
T:II. Là-bas, vers l'église
T:Traduction française par M.D Calvocoressi
T:acct de piano par
T: Maurice Ravel 
T:Cinq mélodies populaires grecques
%%score ( 1 2 ) { ( 3 5 ) | 4 }
L:1/8
Q:1/4=40
M:2/4
K:B
V:1 treble nm="Voice"
V:2 treble 
V:3 treble nm="Piano"
V:5 treble 
V:4 treble 
V:1
"^Andante" z4 | z4 ||[M:3/4] z6 ||[M:2/4] z2!pp! z (B | !>!e2 e c | !>!d2 B) z || %6
w: |||Là-|bas, vers l'é-|gli- se,|
[M:3/4] c c (3B d c B =A ||[M:2/4] G2 z =A |[M:3/4]!<(! (Bc) (d/e/)!<)!!>(! d/ c/ (B=A)!>)! | %9
w: Vers l'é- glise Ay- io Si- dé-|ro, l'é-|glise, * ô * Vier- ge sain- *|
[M:2/4] G2 z A |[M:3/4]!<(! Bc d/ e/!<)!!>(! d/ c/ (B=A)!>)! ||[M:2/4] G2 z G | e2 e c | %13
w: te, l'é-|glise * Ay- io Cos- tan- di- *|no se|sont ré- u-|
 (d2 B) z ||[M:3/4] c c (3B d c B =A ||[M:2/4] G2 z =A || %16
w: nis, _|ras- sem- blés en nombre in- fi-|ni, du|
[M:3/4]!<(! (Bc) (d/e/)!<)!!>(! d/ c/ (B=A)!>)! ||[M:2/4] G2 z =A || %18
w: monde, * ô * Vier- ge sain- *|te, du|
[M:3/4]!<(! (Bc) d/ e/!<)!!>(! d/ c/ (B=A)!>)! ||[M:2/4] G4- | G2 z2 | z4 ||[M:3/4] z6 || %23
w: mon- * de tous les plus bra- *|ves!|_|||
[M:2/4] !fermata!z4 |] %24
w: |
V:2
 x4 | x4 ||[M:3/4] x6 ||[M:2/4] x4 | x4 | x4 ||[M:3/4] x6 ||[M:2/4] x4 |[M:3/4] x6 |[M:2/4] x4 | %10
[M:3/4] (B c) x4 ||[M:2/4] x4 | x4 | x4 ||[M:3/4] x6 ||[M:2/4] x4 ||[M:3/4] x6 ||[M:2/4] x4 || %18
[M:3/4] x6 ||[M:2/4] x4 | x4 | x4 ||[M:3/4] x6 ||[M:2/4] x4 |] %24
V:3
!pp! z2 !arpeggio!!tenuto![gd'g']2 | z2 !arpeggio!!tenuto![gc'g']2 || %2
[M:3/4] z2 (!arpeggio!!tenuto!.[gd'g']2 !arpeggio!!tenuto!.[gc'g']2) || %3
[M:2/4] z2 !arpeggio!!tenuto![gd']2 | z2 !arpeggio!!tenuto![eb]2 | z2 !arpeggio!!tenuto![db]2 || %6
[M:3/4] z2 (!arpeggio!!tenuto!.[cg]2 !arpeggio!!tenuto!.[cf]2) || %7
[M:2/4] z2 !arpeggio!!tenuto![Gd]2 | %8
[M:3/4] z2 !arpeggio!!tenuto!.[Gdg]2 !arpeggio!!tenuto!.[Gcg]2 | %9
[M:2/4] z2 !arpeggio!!tenuto![Gd]2 | %10
[M:3/4] z2 !arpeggio!!tenuto!.[Gdg]2 !arpeggio!!tenuto!.[Gcg]2 || %11
[M:2/4] z2 !arpeggio!!tenuto!.[Gd]2 | z2 !arpeggio!!tenuto![EB]2 | z2 !arpeggio!!tenuto![DB]2 || %14
[M:3/4] z2 (!arpeggio!!tenuto!.[CG]2 !arpeggio!!tenuto!.[=A,CF]2) || %15
[M:2/4] z2 !arpeggio!!tenuto![G,D]2 || %16
[M:3/4]!<(! z2!<)!!>(! (!arpeggio!!tenuto!.[G,DG]2 !arpeggio!!tenuto!.[G,CG]2)!>)! || %17
[M:2/4] z2 !arpeggio!!tenuto![G,D]2 || %18
[M:3/4]!<(! z2!<)! (!arpeggio!!tenuto!.[G,DG]2!>(! !arpeggio!!tenuto!.[G,CG]2)!>)! || %19
[M:2/4] z2 !arpeggio!!tenuto![G,D]2 |!pp! z2 !arpeggio!!tenuto![Gdg]2 | %21
 z2 !arpeggio!!tenuto![Gcg]2 ||[M:3/4] z2 !arpeggio!!tenuto![Gdg]2 !arpeggio!!tenuto![Gcg]2 || %23
[M:2/4] z2 !arpeggio!!fermata![Gd]2 |] %24
V:4
 Gd- [db]2 | Gc- [ce=a]2 ||[M:3/4] Gd- [db]2 [ce=a]2 ||[M:2/4] Gd- [db]2 | Gc- [cg]2 | GB- [Bf]2 || %6
[M:3/4] CG- [GBe]2 [D=A]2 ||[M:2/4] G,D- [DB]2 |[M:3/4]!<(! G,D-!<)! [DB]2!>(! [CE=A]2!>)! | %9
[M:2/4] G,D- [DB]2 |[M:3/4]!<(! G,D-!<)! [DB]2!>(! [CE=A]2!>)! ||[M:2/4] G,D- [DB]2 | %12
[K:bass] G,,C- [CG]2 | G,,B,- [B,F]2 ||[M:3/4] C,,G,- [G,B,E]2 [D,,D,]2 || %15
[M:2/4] G,,,D,- [D,B,]2 ||[M:3/4] G,,,D,- [D,B,]2 [C,E,=A,]2 ||[M:2/4] G,,,D,- [D,B,]2 || %18
[M:3/4] G,,,D,- [D,B,]2 [C,E,=A,]2 ||[M:2/4] G,,,D,- [D,B,]2 | G,,,-G,,- [G,,,G,,]2 | %21
 G,,,-G,,- [G,,,G,,]2 ||[M:3/4] G,,,-G,,- [G,,,G,,]4 ||[M:2/4] G,,,-G,,- [G,,,G,,]2 |] %24
V:5
 x4 | x4 ||[M:3/4] x6 ||[M:2/4] x4 | x4 | x4 ||[M:3/4] x6 ||[M:2/4] x4 |[M:3/4] x6 |[M:2/4] x4 | %10
[M:3/4] x6 ||[M:2/4] x4 | x4 | x4 ||[M:3/4] x6 ||[M:2/4] x4 ||[M:3/4] x6 ||[M:2/4] x4 || %18
[M:3/4] x6 ||[M:2/4] x4 | x2 [B,DB]2 | x2 [=A,CE=A]2 ||[M:3/4] x2 [B,DB]2 [=A,CE=A]2 || %23
[M:2/4] x2 [B,DB]2 |] %24

